X:1
T:Title
%%score { 1 | 2 }
L:1/8
M:4/4
K:G
V:1 treble nm="Grand Piano"
V:2 treble 
V:1
 z4 z2[Q:1/4=94] B>c | d>d B>A G2 B>G | E<[EA] [EG]>[CE] [B,D]2 D>D | G2 G>A B<d d>B | %4
 [FA]4 z2 [Fd]>[Fe] | d>d B>A G2 B>G | E<[EA] [EG]>[CE] [B,D]2 D>D | G2 G>A B<d d>G | %8
[M:7/8] [DGB]2 [CFA]2 [B,DG]3 |[M:4/4] [Ge]2 G>[Ec] [Ge]2 [Gf]>[Ge] | e>d d>B d2 B>A | %11
 G2 G>A B<d d>B | [FA]4 z2 [Fd]>[Fe] | d>d B>A G2 B>G | E<[EA] [EG]>[CE] [B,D]2 D>D | %15
 G2 G>A B<d d>G |[M:15/8] [DGB]2 [CFA]-[CFA] [B,DG]2- [B,DG] z2 z6 |] %17
V:2
 z4 z2 [G,G]>[G,A,G] | [G,B,G]>[G,B,G] [G,DG]>[K:bass][G,CD] [G,B,D]2 [G,D]>[G,D] | %2
 [C,G,C]<[C,G,] [C,G,]>[C,G,] [G,,G,]2 [G,B,]>[G,B,] | %3
 [G,B,D]2 [G,B,D]>[G,D] [G,DG]<[G,B,G] [G,B,G]>[G,DG] | [D,D]4 z2 [D,A,]>[D,A,] | %5
 [G,B,G]>[G,B,G] [G,DG]>[G,CD] [G,B,D]2[K:bass] [G,D]>[G,D] | %6
 [C,G,C]<[C,G,] [C,G,]>[C,G,] [G,,G,]2 [G,B,]>[G,B,] | %7
 [G,B,D]2 [G,B,D]>[G,CD] [G,DG]<[G,B,G] [G,B,G]>[K:bass][G,B,] |[M:7/8] D,2 D,2 G,,3 | %9
[M:4/4] [C,C]2 [C,C]>[C,G,] [C,C]2 [C,C]>[C,C] | %10
 [G,CG]>[G,B,G] [G,B,G]>[G,DG] [G,B,G]2 [G,DG]>[G,CD] | %11
 [G,B,D]2 [G,B,D]>[G,D] [G,DG]<[G,B,G] [G,B,G]>[G,DG] | [D,D]4 z2 [D,A,]>[D,A,] | %13
 [G,B,G]>[G,B,G] [G,DG]>[G,CD] [G,B,D]2[K:bass] [G,D]>[G,D] | %14
 [C,G,C]<[C,G,] [C,G,]>[C,G,] [G,,G,]2 [G,B,]>[G,B,] | %15
 [G,B,D]2 [G,B,D]>[G,CD] [G,DG]<[G,B,G] [G,B,G]>[K:bass][G,B,] | %16
[M:15/8] D,2 D,-D, G,,2- G,, z2 z6 |] %17

